X: 36129
T: Scollay's
R: reel
M: 4/4
K: Eminor
B,2|:"Em"ED EF GF GA|Bc BA GF GA|B2E2 E2G2|"Bm"FGAF D2B,2|
"Em"ED EF GF GA|"C"BcBA GFGA|"Bm"B2Bc BAGF|"Em"G2E2 E4:|
|:"G"efge B2B2|g2g2 B4|"Am"~c3 B A2 G2|"Bm"FGAF DGFD|
"C"E3F G2A2|"A"BABd e2d2|"C"B2 G2 "D"BAGF|"Em"G2E2 E4:|

